packages/ffe-icons/icons/open/400/sm/switch_access.svg

<svg xmlns="http://www.w3.org/2000/svg" height="20" viewBox="0 -960 960 960" width="20"><path d="M330.211-744Q315-744 304.5-754.289q-10.5-10.29-10.5-25.5Q294-795 304.289-805.5q10.29-10.5 25.5-10.5Q345-816 355.5-805.711q10.5 10.29 10.5 25.5Q366-765 355.711-754.5q-10.29 10.5-25.5 10.5Zm300 0Q615-744 604.5-754.289q-10.5-10.29-10.5-25.5Q594-795 604.289-805.5q10.29-10.5 25.5-10.5Q645-816 655.5-805.711q10.5 10.29 10.5 25.5Q666-765 655.711-754.5q-10.29 10.5-25.5 10.5Zm-450 150Q165-594 154.5-604.289q-10.5-10.29-10.5-25.5Q144-645 154.289-655.5q10.29-10.5 25.5-10.5Q195-666 205.5-655.711q10.5 10.29 10.5 25.5Q216-615 205.711-604.5q-10.29 10.5-25.5 10.5Zm600 0Q765-594 754.5-604.289q-10.5-10.29-10.5-25.5Q744-645 754.289-655.5q10.29-10.5 25.5-10.5Q795-666 805.5-655.711q10.5 10.29 10.5 25.5Q816-615 805.711-604.5q-10.29 10.5-25.5 10.5Zm-600 300Q165-294 154.5-304.289q-10.5-10.29-10.5-25.5Q144-345 154.289-355.5q10.29-10.5 25.5-10.5Q195-366 205.5-355.711q10.5 10.29 10.5 25.5Q216-315 205.711-304.5q-10.29 10.5-25.5 10.5Zm600 0Q765-294 754.5-304.289q-10.5-10.29-10.5-25.5Q744-345 754.289-355.5q10.29-10.5 25.5-10.5Q795-366 805.5-355.711q10.5 10.29 10.5 25.5Q816-315 805.711-304.5q-10.29 10.5-25.5 10.5Zm-450 150Q315-144 304.5-154.289q-10.5-10.29-10.5-25.5Q294-195 304.289-205.5q10.29-10.5 25.5-10.5Q345-216 355.5-205.711q10.5 10.29 10.5 25.5Q366-165 355.711-154.5q-10.29 10.5-25.5 10.5Zm300 0Q615-144 604.5-154.289q-10.5-10.29-10.5-25.5Q594-195 604.289-205.5q10.29-10.5 25.5-10.5Q645-216 655.5-205.711q10.5 10.29 10.5 25.5Q666-165 655.711-154.5q-10.29 10.5-25.5 10.5ZM366-294q-29.7 0-50.85-21.15Q294-336.3 294-366v-228q0-29.7 21.15-50.85Q336.3-666 366-666h228q29.7 0 50.85 21.15Q666-623.7 666-594v228q0 29.7-21.15 50.85Q623.7-294 594-294H366Zm0-72h228v-228H366v228Zm114-114Z"/></svg>

<svg xmlns="http://www.w3.org/2000/svg" height="20" viewBox="0 -960 960 960" width="20"><path d="M330.21-744q-15.21 0-25.71-10.29t-10.5-25.5q0-15.21 10.29-25.71t25.5-10.5q15.21 0 25.71 10.29t10.5 25.5q0 15.21-10.29 25.71t-25.5 10.5Zm300 0q-15.21 0-25.71-10.29t-10.5-25.5q0-15.21 10.29-25.71t25.5-10.5q15.21 0 25.71 10.29t10.5 25.5q0 15.21-10.29 25.71t-25.5 10.5Zm-450 150q-15.21 0-25.71-10.29t-10.5-25.5q0-15.21 10.29-25.71t25.5-10.5q15.21 0 25.71 10.29t10.5 25.5q0 15.21-10.29 25.71t-25.5 10.5Zm600 0q-15.21 0-25.71-10.29t-10.5-25.5q0-15.21 10.29-25.71t25.5-10.5q15.21 0 25.71 10.29t10.5 25.5q0 15.21-10.29 25.71t-25.5 10.5Zm-600 300q-15.21 0-25.71-10.29t-10.5-25.5q0-15.21 10.29-25.71t25.5-10.5q15.21 0 25.71 10.29t10.5 25.5q0 15.21-10.29 25.71t-25.5 10.5Zm600 0q-15.21 0-25.71-10.29t-10.5-25.5q0-15.21 10.29-25.71t25.5-10.5q15.21 0 25.71 10.29t10.5 25.5q0 15.21-10.29 25.71t-25.5 10.5Zm-450 150q-15.21 0-25.71-10.29t-10.5-25.5q0-15.21 10.29-25.71t25.5-10.5q15.21 0 25.71 10.29t10.5 25.5q0 15.21-10.29 25.71t-25.5 10.5Zm300 0q-15.21 0-25.71-10.29t-10.5-25.5q0-15.21 10.29-25.71t25.5-10.5q15.21 0 25.71 10.29t10.5 25.5q0 15.21-10.29 25.71t-25.5 10.5ZM366-294q-29.7 0-50.85-21.15Q294-336.3 294-366v-228q0-29.7 21.15-50.85Q336.3-666 366-666h228q29.7 0 50.85 21.15Q666-623.7 666-594v228q0 29.7-21.15 50.85Q623.7-294 594-294H366Zm0-72h228v-228H366v228Zm114-114Z"/></svg>
